svg/trophy.svg

<?xml version="1.0" encoding="UTF-8" standalone="no"?>
<svg
   xmlns:dc="http://purl.org/dc/elements/1.1/"
   xmlns:cc="http://creativecommons.org/ns#"
   xmlns:rdf="http://www.w3.org/1999/02/22-rdf-syntax-ns#"
   xmlns:svg="http://www.w3.org/2000/svg"
   xmlns="http://www.w3.org/2000/svg"
   xmlns:sodipodi="http://sodipodi.sourceforge.net/DTD/sodipodi-0.dtd"
   xmlns:inkscape="http://www.inkscape.org/namespaces/inkscape"
   class="ionicon"
   viewBox="0 0 512 512"
   version="1.1"
   id="svg6"
   sodipodi:docname="trophy.svg"
   inkscape:version="1.0.2 (e86c8708, 2021-01-15)">
  <metadata
     id="metadata12">
    <rdf:RDF>
      <cc:Work
         rdf:about="">
        <dc:format>image/svg+xml</dc:format>
        <dc:type
           rdf:resource="http://purl.org/dc/dcmitype/StillImage" />
      </cc:Work>
    </rdf:RDF>
  </metadata>
  <defs
     id="defs10" />
  <sodipodi:namedview
     pagecolor="#ffffff"
     bordercolor="#666666"
     borderopacity="1"
     objecttolerance="10"
     gridtolerance="10"
     guidetolerance="10"
     inkscape:pageopacity="0"
     inkscape:pageshadow="2"
     inkscape:window-width="689"
     inkscape:window-height="480"
     id="namedview8"
     showgrid="false"
     inkscape:zoom="1.3027344"
     inkscape:cx="256"
     inkscape:cy="256"
     inkscape:window-x="44"
     inkscape:window-y="25"
     inkscape:window-maximized="0"
     inkscape:current-layer="svg6" />
  <title
     id="title2">Trophy</title>
  <path
     style="color:#000000;font-style:normal;font-variant:normal;font-weight:normal;font-stretch:normal;font-size:medium;line-height:normal;font-family:sans-serif;font-variant-ligatures:normal;font-variant-position:normal;font-variant-caps:normal;font-variant-numeric:normal;font-variant-alternates:normal;font-variant-east-asian:normal;font-feature-settings:normal;font-variation-settings:normal;text-indent:0;text-align:start;text-decoration:none;text-decoration-line:none;text-decoration-style:solid;text-decoration-color:#000000;letter-spacing:normal;word-spacing:normal;text-transform:none;writing-mode:lr-tb;direction:ltr;text-orientation:mixed;dominant-baseline:auto;baseline-shift:baseline;text-anchor:start;white-space:normal;shape-padding:0;shape-margin:0;inline-size:0;clip-rule:nonzero;display:inline;overflow:visible;visibility:visible;isolation:auto;mix-blend-mode:normal;color-interpolation:sRGB;color-interpolation-filters:linearRGB;solid-color:#000000;solid-opacity:1;vector-effect:none;fill:#000000;fill-opacity:1;fill-rule:nonzero;stroke-width:1;stroke-linecap:butt;stroke-linejoin:miter;stroke-miterlimit:4;stroke-dasharray:none;stroke-dashoffset:0;stroke-opacity:1;color-rendering:auto;image-rendering:auto;shape-rendering:auto;text-rendering:auto;enable-background:accumulate;stop-color:#000000;stop-opacity:1;stroke:none;opacity:1"
     d="m 464,80 h -60.1 c -2.20914,0 -4,-1.790861 -4,-4 V 63.92 C 399.8559,46.278138 385.54192,31.999945 367.9,32 l -223.79,0.26 c -17.62239,0.033 -31.90148,14.307625 -31.94,31.93 V 76 c 0,2.209139 -1.79086,4 -4,4 H 48 c -8.836556,0 -16,7.163444 -16,16 v 16 c 0,54.53 30,112.45 76.52,125.35 2.80378,0.78064 4.94207,3.05377 5.55,5.9 5.77,26.89 23.52,52.5 51.41,73.61 20.91,15.83 45.85,27.5 68.27,32.48 3.65105,0.81849 6.24708,4.05834 6.25,7.8 V 444 c 0,2.20914 -1.79086,4 -4,4 h -59.55 c -8.61,0 -16,6.62 -16.43,15.23 -0.43978,9.12773 6.84168,16.76917 15.98,16.77 h 159.55 c 8.61,0 16,-6.62 16.43,-15.23 0.43978,-9.12773 -6.84168,-16.76917 -15.98,-16.77 h -60 c -2.20914,0 -4,-1.79086 -4,-4 v -86.86 c 0.003,-3.74166 2.59895,-6.98151 6.25,-7.8 22.42,-5 47.36,-16.65 68.27,-32.48 27.89,-21.11 45.64,-46.72 51.41,-73.61 0.60793,-2.84623 2.74622,-5.11936 5.55,-5.9 C 450,224.45 480,166.53 480,112 V 96 c 0,-8.836556 -7.16344,-16 -16,-16 z M 112,198.22 c -0.0108,3.07294 -3.33875,4.9865 -6,3.45 -10.26,-6.11 -17.75,-15.37 -22.14,-21.89 -11.91,-17.69 -19,-40.67 -19.79,-63.63 -0.08509,-2.26747 1.730931,-4.1516 4,-4.15 h 40 c 2.20914,0 4,1.79086 4,4 -0.02,27.45 -0.07,58.87 -0.07,82.22 z m 316.13,-18.44 c -4.39,6.52 -11.87,15.78 -22.13,21.89 -2.66509,1.53869 -5.99685,-0.38262 -6,-3.46 0,-26.51 0,-56.63 -0.05,-82.21 0,-2.20914 1.79086,-4 4,-4 h 40 c 2.26907,-0.002 4.08509,1.88253 4,4.15 -0.79,22.96 -7.9,45.94 -19.81,63.63 z"
     id="path4" />
</svg>

<svg xmlns="http://www.w3.org/2000/svg" width="512" height="512" viewBox="0 0 512 512"><title>ionicons-v5-q</title><path d="M464,80H403.9a4,4,0,0,1-4-4c0-4.89,0-9,0-12.08A32,32,0,0,0,367.9,32h0l-223.79.26a32,32,0,0,0-31.94,31.93c0,3.23,0,7.22,0,11.81a4,4,0,0,1-4,4H48A16,16,0,0,0,32,96v16c0,54.53,30,112.45,76.52,125.35a7.82,7.82,0,0,1,5.55,5.9c5.77,26.89,23.52,52.5,51.41,73.61,20.91,15.83,45.85,27.5,68.27,32.48a8,8,0,0,1,6.25,7.8V444a4,4,0,0,1-4,4H176.45c-8.61,0-16,6.62-16.43,15.23A16,16,0,0,0,176,480H335.55c8.61,0,16-6.62,16.43-15.23A16,16,0,0,0,336,448H276a4,4,0,0,1-4-4V357.14a8,8,0,0,1,6.25-7.8c22.42-5,47.36-16.65,68.27-32.48,27.89-21.11,45.64-46.72,51.41-73.61a7.82,7.82,0,0,1,5.55-5.9C450,224.45,480,166.53,480,112V96A16,16,0,0,0,464,80ZM112,198.22a4,4,0,0,1-6,3.45c-10.26-6.11-17.75-15.37-22.14-21.89-11.91-17.69-19-40.67-19.79-63.63a4,4,0,0,1,4-4.15h40a4,4,0,0,1,4,4C112.05,143.45,112,174.87,112,198.22Zm316.13-18.44c-4.39,6.52-11.87,15.78-22.13,21.89a4,4,0,0,1-6-3.46c0-26.51,0-56.63-.05-82.21a4,4,0,0,1,4-4h40a4,4,0,0,1,4,4.15C447.16,139.11,440.05,162.09,428.14,179.78Z"/></svg>
